client/src/assets/images/icon-socialhistory-white.svg

<svg viewBox="0 0 96 96" xmlns="http://www.w3.org/2000/svg"><g fill="#fff"><path d="m70.17 22.26h-11.71v-1.36a.75.75 0 0 0 -.75-.75h-4.44a5.4 5.4 0 0 0 -10.54 0h-4.44a.76.76 0 0 0 -.75.75v1.36h-11.71a.76.76 0 0 0 -.75.75v50.67a.76.76 0 0 0 .75.75h44.34a.76.76 0 0 0 .75-.75v-50.68a.76.76 0 0 0 -.75-.74zm-31.17-.61h4.34a.73.73 0 0 0 .74-.68 3.9 3.9 0 0 1 7.76 0 .74.74 0 0 0 .74.68h4.42v7.26h-18zm18.67 8.76a.75.75 0 0 0 .75-.75v-1.36h5.89v40.41h-32.66v-40.41h5.89v1.36a.76.76 0 0 0 .75.75zm11.75 42.52h-42.84v-49.17h11v3h-6.68a.75.75 0 0 0 -.75.75v41.95a.76.76 0 0 0 .75.75h34.2a.75.75 0 0 0 .75-.75v-41.91a.74.74 0 0 0 -.75-.75h-6.64v-3h11z"/><path d="m48.12 47.13a4.82 4.82 0 1 0 -4.82-4.82 4.83 4.83 0 0 0 4.82 4.82zm0-8.43a3.62 3.62 0 1 1 -3.62 3.61 3.62 3.62 0 0 1 3.62-3.61z"/><path d="m39.45 58.5h17.11a.6.6 0 0 0 .6-.6v-6.09a4.83 4.83 0 0 0 -4.82-4.81.63.63 0 0 0 -.43.17 4.84 4.84 0 0 1 -1.83 1.18 4.67 4.67 0 0 1 -2.08.41 5 5 0 0 1 -2.07-.41 6.74 6.74 0 0 1 -1.84-1.18.61.61 0 0 0 -.43-.17 4.82 4.82 0 0 0 -4.81 4.82v6.08a.6.6 0 0 0 .6.6zm.6-6.69a3.57 3.57 0 0 1 3.38-3.61 9 9 0 0 0 2 1.23 6.23 6.23 0 0 0 2.57.57 5.66 5.66 0 0 0 2.53-.5 6.05 6.05 0 0 0 2-1.25 3.57 3.57 0 0 1 3.47 3.56v5.49h-3v-3.3a.6.6 0 0 0 -1.2 0v3.3h-7.42v-3.3a.61.61 0 0 0 -.59-.6.6.6 0 0 0 -.6.58l-.1 3.29h-3z"/></g></svg>

<svg xmlns="http://www.w3.org/2000/svg" viewBox="0 0 96 96"><defs><style>.cls-1{fill:#fff;}</style></defs><title>socialhistory</title><g id="Content"><path class="cls-1" d="M70.17,22.26H58.46V20.9a.75.75,0,0,0-.75-.75H53.27a5.4,5.4,0,0,0-10.54,0H38.29a.76.76,0,0,0-.75.75v1.36H25.83a.76.76,0,0,0-.75.75V73.68a.76.76,0,0,0,.75.75H70.17a.76.76,0,0,0,.75-.75V23A.76.76,0,0,0,70.17,22.26ZM39,21.65h4.34a.73.73,0,0,0,.74-.68,3.9,3.9,0,0,1,7.76,0,.74.74,0,0,0,.74.68H57v7.26H39Zm18.67,8.76a.75.75,0,0,0,.75-.75V28.3h5.89V68.71H31.65V28.3h5.89v1.36a.76.76,0,0,0,.75.75ZM69.42,72.93H26.58V23.76h11v3H30.9a.75.75,0,0,0-.75.75V69.46a.76.76,0,0,0,.75.75H65.1a.75.75,0,0,0,.75-.75V27.55a.74.74,0,0,0-.75-.75H58.46v-3h11Z"/><path class="cls-1" d="M48.12,47.13a4.82,4.82,0,1,0-4.82-4.82A4.83,4.83,0,0,0,48.12,47.13Zm0-8.43a3.62,3.62,0,1,1-3.62,3.61A3.62,3.62,0,0,1,48.12,38.7Z"/><path class="cls-1" d="M39.45,58.5H56.56a.6.6,0,0,0,.6-.6V51.81A4.83,4.83,0,0,0,52.34,47a.63.63,0,0,0-.43.17,4.84,4.84,0,0,1-1.83,1.18,4.67,4.67,0,0,1-2.08.41,5,5,0,0,1-2.07-.41,6.74,6.74,0,0,1-1.84-1.18.61.61,0,0,0-.43-.17,4.82,4.82,0,0,0-4.81,4.82V57.9A.6.6,0,0,0,39.45,58.5Zm.6-6.69a3.57,3.57,0,0,1,3.38-3.61,9,9,0,0,0,2,1.23A6.23,6.23,0,0,0,48,50a5.66,5.66,0,0,0,2.53-.5,6.05,6.05,0,0,0,2-1.25A3.57,3.57,0,0,1,56,51.81V57.3h-3V54a.6.6,0,0,0-1.2,0V57.3H44.38V54a.61.61,0,0,0-.59-.6h0a.6.6,0,0,0-.6.58l-.1,3.29h-3Z"/></g></svg>
